img/icons/electronic/washing-machine.svg

<svg xmlns="http://www.w3.org/2000/svg" viewBox="0 0 40 48"><defs><style>.cls-1{fill:#231f20}</style></defs><g id="Layer_2" data-name="Layer 2"><g id="Icons"><g id="Device_Electronic" data-name="Device / Electronic"><g id="Washing_Machine" data-name="Washing Machine"><path class="cls-1" d="M0 0v39a9 9 0 009 9h22a9 9 0 009-9V0zm38 2v8H2V2zm-7 44H9a7 7 0 01-7-7V12h36v27a7 7 0 01-7 7z"/><circle class="cls-1" cx="34" cy="6" r="2"/><circle class="cls-1" cx="28" cy="6" r="2"/><path class="cls-1" d="M20 18a11 11 0 1011 11 11 11 0 00-11-11zm0 20a9 9 0 119-9 9 9 0 01-9 9z"/></g></g></g></g></svg>

<svg xmlns="http://www.w3.org/2000/svg" viewBox="0 0 40 48"><defs><style>.cls-1{fill:#231f20;}</style></defs><title>Washing Machine</title><g id="Layer_2" data-name="Layer 2"><g id="Icons"><g id="Device_Electronic" data-name="Device / Electronic"><g id="Washing_Machine" data-name="Washing Machine"><path class="cls-1" d="M0,0V39a9,9,0,0,0,9,9H31a9,9,0,0,0,9-9V0ZM38,2v8H2V2ZM31,46H9a7,7,0,0,1-7-7V12H38V39A7,7,0,0,1,31,46Z"/><circle class="cls-1" cx="34" cy="6" r="2"/><circle class="cls-1" cx="28" cy="6" r="2"/><path class="cls-1" d="M20,18A11,11,0,1,0,31,29,11,11,0,0,0,20,18Zm0,20a9,9,0,1,1,9-9A9,9,0,0,1,20,38Z"/></g></g></g></g></svg>
